output/footprints/LKBD_MountingHole.pretty/MountingHole_M2.svg

<?xml version="1.0" standalone="no"?>
 <!DOCTYPE svg PUBLIC "-//W3C//DTD SVG 1.1//EN" 
 "http://www.w3.org/Graphics/SVG/1.1/DTD/svg11.dtd"> 
<svg
  xmlns:svg="http://www.w3.org/2000/svg"
  xmlns="http://www.w3.org/2000/svg"
  xmlns:xlink="http://www.w3.org/1999/xlink"
  version="1.1"
  width="4.5212mm" height="4.4450mm" viewBox="0.0000 0.0000 4.5212 4.4450">
<title>SVG Image created as MountingHole_M2.svg date 2025/05/12 22:52:36 </title>
  <desc>Image generated by PCBNEW </desc>
<g style="fill:#000000; fill-opacity:1.0000;stroke:#000000; stroke-opacity:1.0000;
stroke-linecap:round; stroke-linejoin:round;"
 transform="translate(0 0) scale(1 1)">
</g>
<g style="fill:#4D7FC4; fill-opacity:1.0000; stroke:none;">
<circle cx="2.2679" cy="2.2250" r="2.0000" /> 
</g>
<g style="fill:#C83434; fill-opacity:1.0000; stroke:none;">
<circle cx="2.2679" cy="2.2250" r="2.0000" /> 
</g>
<g style="fill:none; 
stroke:#585D84; stroke-width:0.1111; stroke-opacity:1; 
stroke-linecap:round; stroke-linejoin:round;">
<text x="2.2679" y="2.8917"
textLength="1.3365" font-size="1.7778" lengthAdjust="spacingAndGlyphs"
text-anchor="middle" opacity="0" stroke-opacity="0">1</text>
<g class="stroked-text"><desc>1</desc>
<path d="M2.6488 2.8360
L1.8869 2.8360
" />
<path d="M2.2679 2.8360
L2.2679 1.5027
" />
<path d="M2.2679 1.5027
L2.1409 1.6932
" />
<path d="M2.1409 1.6932
L2.0139 1.8202
" />
<path d="M2.0139 1.8202
L1.8869 1.8837
" />
</g></g>
<g style="fill:none; 
stroke:#585D84; stroke-width:0.0212; stroke-opacity:1; 
stroke-linecap:round; stroke-linejoin:round;">
<circle cx="2.2679" cy="2.2250" r="2.0000" /> 
</g>
<g style="fill:none; 
stroke:#AFAFAF; stroke-width:0.1500; stroke-opacity:1; 
stroke-linecap:round; stroke-linejoin:round;">
<text x="2.2679" y="2.7250"
textLength="4.5357" font-size="1.3333" lengthAdjust="spacingAndGlyphs"
text-anchor="middle" opacity="0" stroke-opacity="0">REF**</text>
<g class="stroked-text"><desc>REF**</desc>
<path d="M0.9345 2.6798
L0.6012 2.2036
" />
<path d="M0.3631 2.6798
L0.3631 1.6798
" />
<path d="M0.3631 1.6798
L0.7440 1.6798
" />
<path d="M0.7440 1.6798
L0.8393 1.7274
" />
<path d="M0.8393 1.7274
L0.8869 1.7751
" />
<path d="M0.8869 1.7751
L0.9345 1.8703
" />
<path d="M0.9345 1.8703
L0.9345 2.0132
" />
<path d="M0.9345 2.0132
L0.8869 2.1084
" />
<path d="M0.8869 2.1084
L0.8393 2.1560
" />
<path d="M0.8393 2.1560
L0.7440 2.2036
" />
<path d="M0.7440 2.2036
L0.3631 2.2036
" />
<path d="M1.3631 2.1560
L1.6964 2.1560
" />
<path d="M1.8393 2.6798
L1.3631 2.6798
" />
<path d="M1.3631 2.6798
L1.3631 1.6798
" />
<path d="M1.3631 1.6798
L1.8393 1.6798
" />
<path d="M2.6012 2.1560
L2.2679 2.1560
" />
<path d="M2.2679 2.6798
L2.2679 1.6798
" />
<path d="M2.2679 1.6798
L2.7440 1.6798
" />
<path d="M3.2679 1.6798
L3.2679 1.9179
" />
<path d="M3.0298 1.8227
L3.2679 1.9179
" />
<path d="M3.2679 1.9179
L3.5060 1.8227
" />
<path d="M3.1250 2.1084
L3.2679 1.9179
" />
<path d="M3.2679 1.9179
L3.4107 2.1084
" />
<path d="M4.0298 1.6798
L4.0298 1.9179
" />
<path d="M3.7917 1.8227
L4.0298 1.9179
" />
<path d="M4.0298 1.9179
L4.2679 1.8227
" />
<path d="M3.8869 2.1084
L4.0298 1.9179
" />
<path d="M4.0298 1.9179
L4.1726 2.1084
" />
</g></g>
<g style="fill:none; 
stroke:#AFAFAF; stroke-width:0.1111; stroke-opacity:1; 
stroke-linecap:round; stroke-linejoin:round;">
<text x="2.2679" y="2.8917"
textLength="1.3365" font-size="1.7778" lengthAdjust="spacingAndGlyphs"
text-anchor="middle" opacity="0" stroke-opacity="0">1</text>
<g class="stroked-text"><desc>1</desc>
<path d="M2.6488 2.8360
L1.8869 2.8360
" />
<path d="M2.2679 2.8360
L2.2679 1.5027
" />
<path d="M2.2679 1.5027
L2.1409 1.6932
" />
<path d="M2.1409 1.6932
L2.0139 1.8202
" />
<path d="M2.0139 1.8202
L1.8869 1.8837
" />
</g></g>
<g style="fill:none; 
stroke:#AFAFAF; stroke-width:0.0212; stroke-opacity:1; 
stroke-linecap:round; stroke-linejoin:round;">
<circle cx="2.2679" cy="2.2250" r="2.0000" /> 
</g> 
</svg>

<svg xmlns="http://www.w3.org/2000/svg" width="17.088" height="16.8" viewBox="0 0 4.521 4.445">
    <circle cx="2.268" cy="2.225" r="2" style="fill:#4d7fc4;fill-opacity:1;stroke:none"/>
    <circle cx="2.268" cy="2.225" r="2" style="fill:#c83434;fill-opacity:1;stroke:none"/>
    <g class="stroked-text" style="fill:none;stroke:#585d84;stroke-width:.1111;stroke-opacity:1;stroke-linecap:round;stroke-linejoin:round">
        <path d="M2.649 2.836h-.762M2.268 2.836V1.503M2.268 1.503l-.127.19M2.14 1.693l-.126.127M2.014 1.82l-.127.064"/>
    </g>
    <circle cx="2.268" cy="2.225" r="2" style="fill:none;stroke:#585d84;stroke-width:.0212;stroke-opacity:1;stroke-linecap:round;stroke-linejoin:round"/>
    <g class="stroked-text" style="fill:none;stroke:#afafaf;stroke-width:.15;stroke-opacity:1;stroke-linecap:round;stroke-linejoin:round">
        <path d="M.935 2.68.6 2.204M.363 2.68v-1M.363 1.68h.381M.744 1.68l.095.047M.84 1.727l.047.048M.887 1.775l.047.095M.935 1.87v.143M.935 2.013l-.048.095M.887 2.108l-.048.048M.84 2.156l-.096.048M.744 2.204h-.38M1.363 2.156h.333M1.84 2.68h-.477M1.363 2.68v-1M1.363 1.68h.476M2.601 2.156h-.333M2.268 2.68v-1M2.268 1.68h.476M3.268 1.68v.238M3.03 1.823l.238.095M3.268 1.918l.238-.095M3.125 2.108l.143-.19M3.268 1.918l.143.19M4.03 1.68v.238M3.792 1.823l.238.095M4.03 1.918l.238-.095M3.887 2.108l.143-.19M4.03 1.918l.143.19"/>
    </g>
    <g class="stroked-text" style="fill:none;stroke:#afafaf;stroke-width:.1111;stroke-opacity:1;stroke-linecap:round;stroke-linejoin:round">
        <path d="M2.649 2.836h-.762M2.268 2.836V1.503M2.268 1.503l-.127.19M2.14 1.693l-.126.127M2.014 1.82l-.127.064"/>
    </g>
    <circle cx="2.268" cy="2.225" r="2" style="fill:none;stroke:#afafaf;stroke-width:.0212;stroke-opacity:1;stroke-linecap:round;stroke-linejoin:round"/>
</svg>
